assets/icons/qvision/auto_fix_normal.svg

<svg width="24" height="24" viewBox="0 0 24 24" fill="none" xmlns="http://www.w3.org/2000/svg">
<g clip-path="url(#clip0_147_3215)">
<path d="M22.0001 2L19.5001 3.4L17.0001 2L18.4001 4.5L17.0001 7L19.5001 5.6L22.0001 7L20.6001 4.5L22.0001 2ZM14.3701 7.29C13.9801 6.9 13.3501 6.9 12.9601 7.29L1.29006 18.96C0.900059 19.35 0.900059 19.98 1.29006 20.37L3.63006 22.71C4.02006 23.1 4.65006 23.1 5.04006 22.71L16.7001 11.05C17.0901 10.66 17.0901 10.03 16.7001 9.64L14.3701 7.29ZM13.3401 12.78L11.2201 10.66L13.6601 8.22L15.7801 10.34L13.3401 12.78Z" fill="#323232"/>
</g>
<defs>
<clipPath id="clip0_147_3215">
<rect width="24" height="24" fill="white"/>
</clipPath>
</defs>
</svg>

<svg xmlns="http://www.w3.org/2000/svg" height="24" viewBox="0 0 24 24" width="24"><path d="M0 0h24v24H0z" fill="none"/><path d="M22 2l-2.5 1.4L17 2l1.4 2.5L17 7l2.5-1.4L22 7l-1.4-2.5zm-7.63 5.29c-.39-.39-1.02-.39-1.41 0L1.29 18.96c-.39.39-.39 1.02 0 1.41l2.34 2.34c.39.39 1.02.39 1.41 0L16.7 11.05c.39-.39.39-1.02 0-1.41l-2.33-2.35zm-1.03 5.49l-2.12-2.12 2.44-2.44 2.12 2.12-2.44 2.44z"/></svg>
